static/logos/helpScout-wordmark-color.svg

<svg width="100" height="20" viewBox="0 0 100 20" fill="none" xmlns="http://www.w3.org/2000/svg">
<g clip-path="url(#clip0_1_2468)">
<path d="M27.4726 3.74376L27.4393 3.7604V9.06822H22.3977V3.7604L22.3645 3.74376C21.6157 3.59401 20.8836 3.59401 20.1348 3.74376L20.1016 3.7604V15.9734L20.1348 15.99C20.5009 16.0566 20.867 16.1065 21.233 16.1065C21.5991 16.1065 21.9651 16.0732 22.3478 15.99L22.3811 15.9734V11.015H27.4227V15.9734L27.456 15.99C28.1881 16.1398 28.9368 16.1398 29.6856 15.99L29.7189 15.9734V3.7604L29.6856 3.74376C28.9535 3.59401 28.2047 3.59401 27.4726 3.74376ZM35.2763 7.17138C32.6307 7.17138 31.0666 8.83527 31.0666 11.6306C31.0666 13.0782 31.3994 14.2263 32.065 15.025C32.7971 15.8902 33.8786 16.3394 35.3095 16.3394C37.7388 16.3394 38.9868 14.8918 39.1531 13.4443V13.411L39.1199 13.3943C38.5042 13.1947 37.9385 13.1448 37.2563 13.2446H37.2397V13.2612C37.0899 14.1098 36.3911 14.6256 35.3428 14.6256C33.8952 14.6256 33.1798 13.827 33.1631 12.1963H39.2863V12.1631C39.4693 10.5491 39.1365 9.23461 38.3545 8.35274C37.639 7.58735 36.5741 7.17138 35.2763 7.17138ZM35.2596 8.75208C35.8586 8.75208 36.3744 8.9351 36.7239 9.3178C37.0733 9.7005 37.2563 10.2662 37.223 10.9484H33.1631C33.1964 9.55075 33.9618 8.75208 35.2596 8.75208ZM40.7671 3.74376L40.7338 3.7604V15.9734L40.7671 15.99C41.1165 16.0566 41.4493 16.1065 41.8154 16.1065C42.1648 16.1065 42.5142 16.0732 42.8636 15.99L42.8969 15.9734V3.7604L42.8636 3.74376C42.1814 3.57737 41.466 3.59401 40.7671 3.74376ZM48.9202 7.17138C48.0051 7.17138 47.04 7.52079 46.1249 8.20299L45.9917 7.55407L45.9751 7.53743C45.4593 7.38768 45.0267 7.38768 44.5109 7.53743L44.4942 7.55407V19.7171L44.5275 19.7338C44.8769 19.8003 45.2097 19.8502 45.5758 19.8502C45.9418 19.8502 46.2746 19.817 46.624 19.7338L46.6573 19.7171V15.6572C47.3894 16.1231 48.1548 16.3394 49.02 16.3394C51.416 16.3394 52.8636 14.6423 52.8636 11.7804C52.8303 8.86855 51.416 7.17138 48.9202 7.17138ZM46.6074 9.58402C47.2563 9.15141 47.8387 8.9351 48.4876 8.9351C49.9518 8.9351 50.7505 9.95008 50.7505 11.797C50.7505 13.6106 49.9684 14.5757 48.4709 14.5757C47.822 14.5757 47.223 14.376 46.624 13.9434L46.6074 9.58402ZM62.015 9.40099C61.649 9.25124 61.3162 9.13477 61.0001 9.03494C59.3362 8.43594 58.3378 8.08652 58.3212 7.18802C58.3046 6.77204 58.4377 6.42262 58.7205 6.12312C59.1365 5.69051 59.8353 5.47421 60.7006 5.47421C61.5491 5.47421 62.1981 5.70715 62.5974 6.12312C62.9302 6.47254 63.0799 6.97171 63.03 7.57071V7.60399L63.0633 7.62063C63.7954 7.77038 64.5109 7.75374 65.2929 7.57071L65.3262 7.55407V7.52079C65.3761 6.50582 65.06 5.60732 64.4277 4.94176C63.6457 4.10981 62.3811 3.6772 60.7838 3.66056H60.7338C57.7721 3.66056 55.9917 4.97504 55.9751 7.18802C55.9585 9.38436 57.9884 10.1165 59.2031 10.5491L59.3861 10.6156C59.7854 10.7654 60.1681 10.8819 60.5009 11.015C62.1482 11.5807 63.1298 11.9301 63.1631 12.7953C63.1798 13.2446 63.0467 13.6106 62.7638 13.8935C62.3645 14.2928 61.6823 14.4925 60.7671 14.4925C59.7521 14.4925 58.9868 14.2263 58.5375 13.7604C58.2214 13.411 58.0882 12.9451 58.1382 12.4126V12.3794L58.1049 12.3627C57.3728 12.213 56.624 12.2296 55.8753 12.396L55.8586 12.4126V12.4459C55.7921 13.4276 56.0916 14.3095 56.7405 14.9917C57.5891 15.9068 59.0034 16.3893 60.8004 16.3727C62.5641 16.3727 65.4759 15.8902 65.5092 12.812C65.4759 10.7155 63.7122 10.0499 62.015 9.40099ZM70.817 8.95174C72.2813 8.95174 72.6307 9.90016 72.6972 10.4659V10.4992H72.7305C73.4127 10.599 74.045 10.5657 74.6606 10.3827L74.6939 10.3661V10.3328C74.6273 9.48419 74.2613 8.70216 73.6623 8.15307C72.9801 7.52079 71.9818 7.17138 70.817 7.17138C68.0383 7.17138 66.5076 8.80199 66.5076 11.7637C66.5076 14.7088 68.0217 16.3394 70.7838 16.3394C71.9651 16.3394 72.9635 15.99 73.6789 15.3411C74.2613 14.792 74.6107 14.0599 74.6939 13.2612V13.2279L74.6606 13.2113C74.0783 13.0116 73.4293 12.9784 72.7305 13.0948H72.7139V13.1115C72.5308 14.4426 71.233 14.5424 70.8337 14.5424C69.3362 14.5424 68.6373 13.6439 68.6373 11.7304C68.6207 9.83361 69.3195 8.95174 70.817 8.95174ZM79.9684 7.17138C77.2397 7.17138 75.7255 8.80199 75.7255 11.7637C75.7255 14.7088 77.2397 16.3394 79.9684 16.3394C82.6972 16.3394 84.2114 14.7088 84.2114 11.7637C84.2114 8.80199 82.6972 7.17138 79.9684 7.17138ZM82.1482 11.7804C82.1482 13.6772 81.4327 14.5923 79.9684 14.5923C78.5042 14.5923 77.7888 13.6772 77.7888 11.7804C77.7888 9.85025 78.4709 8.95174 79.9684 8.95174C81.4327 8.95174 82.1482 9.86689 82.1482 11.7804ZM91.05 7.57071L91.0167 7.58735V13.6606C90.3345 14.2596 89.7022 14.5091 88.9701 14.5091C87.9551 14.5091 87.5059 13.9268 87.5059 12.5458V7.55407L87.4726 7.53743C86.7904 7.37104 86.0749 7.37104 85.3761 7.53743L85.3428 7.55407V13.0283C85.3428 15.1081 86.4576 16.3062 88.421 16.3062C89.4693 16.3062 90.3844 15.9068 91.3661 14.9917L91.5658 15.9401L91.5824 15.9567C92.0816 16.0898 92.5974 16.0898 93.0966 15.9567L93.1299 15.9401V7.53743L93.0966 7.52079C92.4643 7.38768 91.7655 7.38768 91.05 7.57071ZM99.7521 14.3428L99.7355 14.3095L99.7022 14.3261C98.8703 14.5091 98.3877 14.5091 98.1049 14.2762C97.8719 14.0932 97.7555 13.7604 97.7555 13.2279V9.33444H99.436L99.4526 9.30116C99.5691 8.73544 99.5691 8.15307 99.4526 7.57071L99.436 7.53743H97.7555V5.22462L97.7222 5.20798C97.04 5.05823 96.3245 5.05823 95.6423 5.20798L95.609 5.22462L95.6257 7.53743H94.5608L94.5442 7.57071C94.411 8.13644 94.411 8.73544 94.5442 9.30116L94.5608 9.33444H95.6257L95.6423 13.0782C95.6423 14.1265 95.7089 15.1747 96.4244 15.7903C96.8237 16.1065 97.3894 16.2729 98.1215 16.2729C98.5708 16.2729 99.1032 16.2063 99.7022 16.0898H99.7189L99.7355 16.0732C99.8853 15.5075 99.9019 14.9251 99.7521 14.3428Z" fill="#2A3B47"/>
<path d="M1.198 11.5474L6.97171 5.77371C7.72047 5.0416 8.18636 4.00998 8.18636 2.87854C8.18636 1.76373 7.7371 0.732113 7.00499 0L1.23128 5.77371C0.482529 6.50582 0.0166389 7.53744 0.0166389 8.66889C0.0166389 9.80033 0.46589 10.8153 1.198 11.5474ZM15.1747 8.16972L9.401 13.9434C8.65225 14.6755 8.18636 15.7072 8.18636 16.8386C8.18636 17.9534 8.63561 18.985 9.36772 19.7171L15.1414 13.9434C15.8902 13.2113 16.3561 12.1797 16.3561 11.0483C16.3561 9.91681 15.9068 8.90183 15.1747 8.16972ZM15.1414 5.79035C15.8902 5.05824 16.3561 4.02662 16.3561 2.89517C16.3561 1.78037 15.9068 0.748754 15.1747 0.0166399L1.21464 13.9601C0.46589 14.7088 0 15.7238 0 16.8719C0 17.9867 0.449251 19.0183 1.18136 19.7504L15.1414 5.79035Z" fill="#1087D8"/>
</g>
<defs>
<clipPath id="clip0_1_2468">
<rect width="100" height="19.9667" fill="white"/>
</clipPath>
</defs>
</svg>

<svg xmlns="http://www.w3.org/2000/svg" width="320" height="64" fill="none" viewBox="0 0 100 20"><g clip-path="url(#a)"><path fill="#2A3B47" d="m27.473 3.744-.034.016v5.308h-5.041V3.76l-.034-.016a5.59 5.59 0 0 0-2.23 0l-.032.016v12.213l.033.017c.366.067.732.117 1.098.117.366 0 .732-.034 1.115-.117l.033-.017v-4.958h5.042v4.958l.033.017c.732.15 1.48.15 2.23 0l.033-.017V3.76l-.033-.016a5.507 5.507 0 0 0-2.213 0Zm7.803 3.427c-2.645 0-4.21 1.664-4.21 4.46 0 1.447.333 2.595.999 3.394.732.865 1.814 1.314 3.245 1.314 2.429 0 3.677-1.447 3.843-2.895v-.033l-.033-.017a3.892 3.892 0 0 0-1.864-.15h-.016v.017c-.15.849-.849 1.365-1.897 1.365-1.448 0-2.163-.799-2.18-2.43h6.123v-.033c.183-1.614-.15-2.928-.931-3.81-.716-.766-1.78-1.182-3.079-1.182Zm-.016 1.581c.599 0 1.114.183 1.464.566.35.383.532.948.499 1.63h-4.06c.033-1.397.799-2.196 2.097-2.196Zm5.507-5.008-.033.016v12.213l.033.017c.35.067.682.117 1.048.117a4.5 4.5 0 0 0 1.049-.117l.033-.017V3.76l-.033-.016c-.683-.167-1.398-.15-2.097 0ZM48.92 7.17c-.915 0-1.88.35-2.795 1.032l-.133-.649-.017-.017a2.442 2.442 0 0 0-1.464 0l-.017.017v12.163l.034.017c.349.066.682.116 1.048.116s.699-.033 1.048-.116l.033-.017v-4.06a4.251 4.251 0 0 0 2.363.682c2.396 0 3.844-1.697 3.844-4.559-.034-2.911-1.448-4.609-3.944-4.609Zm-2.313 2.413c.65-.433 1.232-.649 1.88-.649 1.465 0 2.264 1.015 2.264 2.862 0 1.814-.783 2.779-2.28 2.779-.649 0-1.248-.2-1.847-.633l-.017-4.359Zm15.408-.183c-.366-.15-.699-.266-1.015-.366-1.664-.6-2.662-.948-2.679-1.847a1.402 1.402 0 0 1 .4-1.065c.416-.432 1.114-.649 1.98-.649.848 0 1.497.233 1.896.65.333.349.483.848.433 1.447v.033l.033.017c.732.15 1.448.133 2.23-.05l.033-.017v-.033c.05-1.015-.266-1.914-.898-2.58-.782-.831-2.047-1.264-3.644-1.28h-.05c-2.962 0-4.742 1.314-4.759 3.527-.017 2.196 2.013 2.929 3.228 3.361l.183.067c.4.15.782.266 1.115.399 1.647.566 2.629.915 2.662 1.78.017.45-.116.816-.4 1.098-.398.4-1.08.6-1.996.6-1.015 0-1.78-.267-2.23-.733-.316-.349-.449-.815-.399-1.347v-.034l-.033-.016a5.307 5.307 0 0 0-2.23.033l-.016.017v.033c-.067.982.233 1.864.881 2.546.85.915 2.263 1.397 4.06 1.38 1.764 0 4.676-.482 4.71-3.56-.034-2.096-1.798-2.762-3.495-3.411Zm8.802-.45c1.464 0 1.814.95 1.88 1.515v.033h.034c.682.1 1.314.067 1.93-.116l.033-.017v-.033c-.067-.849-.433-1.63-1.032-2.18-.682-.632-1.68-.982-2.845-.982-2.779 0-4.31 1.631-4.31 4.593 0 2.945 1.515 4.575 4.277 4.575 1.181 0 2.18-.349 2.895-.998a3.304 3.304 0 0 0 1.015-2.08v-.033l-.033-.017c-.583-.2-1.232-.233-1.93-.116h-.017v.016c-.183 1.332-1.481 1.431-1.88 1.431-1.498 0-2.197-.898-2.197-2.812-.016-1.896.683-2.778 2.18-2.778Zm9.151-1.78c-2.728 0-4.243 1.631-4.243 4.593 0 2.945 1.515 4.575 4.243 4.575 2.73 0 4.243-1.63 4.243-4.575 0-2.962-1.514-4.593-4.243-4.593Zm2.18 4.61c0 1.896-.715 2.811-2.18 2.811-1.464 0-2.18-.915-2.18-2.812 0-1.93.683-2.828 2.18-2.828 1.465 0 2.18.915 2.18 2.828Zm8.902-4.21-.033.016v6.074c-.682.599-1.315.848-2.047.848-1.015 0-1.464-.582-1.464-1.963V7.554l-.033-.017a4.465 4.465 0 0 0-2.097 0l-.033.017v5.474c0 2.08 1.115 3.278 3.078 3.278 1.048 0 1.963-.4 2.945-1.314l.2.948.016.017a2.92 2.92 0 0 0 1.515 0l.033-.017V7.537l-.033-.016a4.503 4.503 0 0 0-2.047.05Zm8.702 6.772-.016-.034-.034.017c-.832.183-1.314.183-1.597-.05-.233-.183-.35-.516-.35-1.048V9.334h1.681l.017-.033a4.327 4.327 0 0 0 0-1.73l-.017-.034h-1.68V5.225l-.034-.017a4.87 4.87 0 0 0-2.08 0l-.033.017.017 2.312H94.56l-.017.034a3.797 3.797 0 0 0 0 1.73l.017.033h1.065l.016 3.744c0 1.049.067 2.097.782 2.712.4.317.965.483 1.697.483.45 0 .982-.067 1.581-.183h.017l.017-.017c.15-.566.166-1.148.016-1.73Z"/><path fill="#1087D8" d="m1.198 11.547 5.774-5.773a4.046 4.046 0 0 0 1.214-2.895C8.186 1.764 7.737.732 7.005 0L1.231 5.774A4.046 4.046 0 0 0 .017 8.669c0 1.131.449 2.146 1.181 2.878ZM15.175 8.17 9.4 13.943a4.046 4.046 0 0 0-1.215 2.896c0 1.114.45 2.146 1.182 2.878l5.773-5.774a4.046 4.046 0 0 0 1.215-2.895c0-1.131-.45-2.146-1.181-2.878Zm-.034-2.38a4.046 4.046 0 0 0 1.215-2.895c0-1.115-.45-2.146-1.181-2.878L1.215 13.96A4.085 4.085 0 0 0 0 16.872c0 1.115.45 2.146 1.181 2.878l13.96-13.96Z"/></g><defs><clipPath id="a"><path fill="#fff" d="M0 0h100v19.967H0z"/></clipPath></defs></svg>
